X:29
T:Lord, Dismiss Us With Thy Blessing
%%stretchlast false
M:4/4
L:1/4
K:G clef=C1
"^I"[G,,G,B,D] [G,,D,G,B,] "^I¹"[B,,D,DG] "^I"[G,,G,B,D] | "^I²"[D,G,DB]3/2 "^V7³"[C,F,DA]/ "^I¹"[B,,G,DG] [B,,G,D] | "^IV"[C,E,G,E] [C,G,E] "^I¹"[B,,D,G,D] "^vi"[E,,E,G,G] | "^V¹"[F,,D,A,D] "^V7"[D,,D,F,C] "^I"[G,,D,G,B,]2 | [G,B,D] "^I²"[D,G,B,] "^I¹"[B,,D,DG] "^iii"[B,,D,D]/ "^v7²"[A,,D,CD]/ | "^I"[G,,G,B,B]3/2 "^vii°¹"[A,,F,CA]/ "^vi²"[B,,E,B,G] "^V/vi"[B,,^D,B,F] | "^vi"[E,B,G] "^iii"[B,,D,B,F] "^vi¹"[G,,B,E] "^vii"[E,,A,B,F]/ "^vi"[E,,G,B,G]/ | "^V²"[A,,A,DF] "^II7"[A,,G,^CE] "^V"[D,,F,D]2 | [D,F,DA]3/2 [D,F,DA]/ [D,A,DF] [D,F,D] | "^I"[G,,G,DB]3/2 [G,,=F,B,A]/ "^IV"[C,E,CG] [C,G,CE] | "^ii"[A,,A,Ec] "^iii"[B,,D,DB] "^ii¹"[C,E,CA]/ "^V7"[D,F,CA]/ "^vi"[E,G,B,G]/ "^IV¹"[E,G,CG]/ | "^i"[D,A,DG] "^V"[D,,A,DF]/ "^V7"[D,,A,CF]/ "^I"[G,,G,B,G]2 |]
